assets/themes/volcan/grid_corners.svg

<svg xmlns="http://www.w3.org/2000/svg" width="80" height="80" opacity=".85" viewBox="0 0 80 80"><defs><linearGradient id="a" x1="0%" x2="100%" y1="0%" y2="100%"><stop offset="0%" stop-color="#ff6f00"/><stop offset="50%" stop-color="#e53935"/><stop offset="100%" stop-color="#b71c1c"/></linearGradient><linearGradient id="c" x1="0%" x2="100%" y1="0%" y2="100%"><stop offset="0%" stop-color="#ffcc02"/><stop offset="60%" stop-color="#ff6f00"/><stop offset="100%" stop-color="#e53935"/></linearGradient><radialGradient id="d" cx="40%" cy="35%" r="60%"><stop offset="0%" stop-color="#546e7a"/><stop offset="100%" stop-color="#212121"/></radialGradient><filter id="b" width="140%" height="140%" x="-20%" y="-20%"><feDropShadow dx="1.5" dy="1.5" flood-color="#b71c1c" flood-opacity=".7" stdDeviation="2"/></filter></defs><path fill="url(#a)" d="M0 0c4 8 2 18 8 24s2 18 10 26c6 6 4 18 8 28l-4 2H0z" filter="url(#b)" opacity=".9"/><path fill="none" stroke="url(#c)" stroke-linecap="round" stroke-width="4" d="M0 0c3 6 1 16 6 22 4 6 2 16 8 24 4 6 3 18 6 30" filter="url(#b)"/><path fill="url(#a)" d="M0 0c10 4 22 6 28 16s20 12 28 24c6 10 16 18 24 22v-4c-8-4-16-12-22-22-8-12-22-14-28-24C24 4 12 2 0 0" filter="url(#b)" opacity=".75"/><path fill="none" stroke="#ffee58" stroke-linecap="round" stroke-width="1.5" d="M0 0c12 3 24 5 30 14 6 10 20 12 28 24 6 10 16 18 22 22" opacity=".8"/><g filter="url(#b)"><path fill="url(#d)" d="M36 52c-4-4-6-8-2-10s10 0 12 4 0 9-4 10c-2 1-5-2-6-4"/><path fill="url(#d)" d="M56 28c-3-4-4-8-1-9s8 1 9 4-1 7-4 7c-2 0-3-1-4-2"/><path fill="#37474f" d="M18 62c-2-3-2-6 0-7s5 1 5 4c0 2-2 4-4 4Z"/><ellipse cx="66" cy="48" fill="#37474f" rx="4" ry="3" transform="rotate(-15 66 48)"/></g><g fill="#ffcc02" opacity=".9"><path d="m48 18 2-4 2 4-4-2zm14-6 2-4 2 4-4-2zm10 10 2-4 2 4-4-2z"/><circle cx="44" cy="10" r="1.5"/><circle cx="58" cy="6" r="1.2"/></g></svg>

<svg xmlns="http://www.w3.org/2000/svg" viewBox="0 0 80 80" width="80" height="80" opacity="0.85">
  <defs>
    <linearGradient id="volcan-lava-grad" x1="0%" y1="0%" x2="100%" y2="100%">
      <stop offset="0%" stop-color="#ff6f00"/>
      <stop offset="50%" stop-color="#e53935"/>
      <stop offset="100%" stop-color="#b71c1c"/>
    </linearGradient>
    <linearGradient id="volcan-lava2-grad" x1="0%" y1="0%" x2="100%" y2="100%">
      <stop offset="0%" stop-color="#ffcc02"/>
      <stop offset="60%" stop-color="#ff6f00"/>
      <stop offset="100%" stop-color="#e53935"/>
    </linearGradient>
    <radialGradient id="volcan-rock-grad" cx="40%" cy="35%" r="60%">
      <stop offset="0%" stop-color="#546e7a"/>
      <stop offset="100%" stop-color="#212121"/>
    </radialGradient>
    <filter id="volcan-shadow" x="-20%" y="-20%" width="140%" height="140%">
      <feDropShadow dx="1.5" dy="1.5" stdDeviation="2" flood-color="#b71c1c" flood-opacity="0.7"/>
    </filter>
  </defs>

  <!-- Coulée de lave principale depuis le coin (0,0) -->
  <path d="M0,0 C4,8 2,18 8,24 C14,30 10,42 18,50 C24,56 22,68 26,78 L22,80 L0,80 L0,0Z"
        fill="url(#volcan-lava-grad)" filter="url(#volcan-shadow)" opacity="0.9"/>

  <!-- Coulée lave secondaire, plus claire (centre de la coulée) -->
  <path d="M0,0 C3,6 1,16 6,22 C10,28 8,38 14,46 C18,52 17,64 20,76"
        fill="none" stroke="url(#volcan-lava2-grad)" stroke-width="4"
        stroke-linecap="round" filter="url(#volcan-shadow)"/>

  <!-- Coulée lave tertiaire vers la droite -->
  <path d="M0,0 C10,4 22,6 28,16 C34,26 48,28 56,40 C62,50 72,58 80,62 L80,58 C72,54 64,46 58,36 C50,24 36,22 30,12 C24,4 12,2 0,0Z"
        fill="url(#volcan-lava-grad)" filter="url(#volcan-shadow)" opacity="0.75"/>

  <!-- Filet jaune vif au milieu de la coulée horizontale -->
  <path d="M0,0 C12,3 24,5 30,14 C36,24 50,26 58,38 C64,48 74,56 80,60"
        fill="none" stroke="#ffee58" stroke-width="1.5"
        stroke-linecap="round" opacity="0.8"/>

  <!-- Pierres volcaniques noires -->
  <g filter="url(#volcan-shadow)">
    <!-- Grosse pierre -->
    <path d="M36,52 C32,48 30,44 34,42 C38,40 44,42 46,46 C48,50 46,55 42,56 C40,57 37,54 36,52Z"
          fill="url(#volcan-rock-grad)"/>
    <!-- Pierre moyenne -->
    <path d="M56,28 C53,24 52,20 55,19 C58,18 63,20 64,23 C65,26 63,30 60,30 C58,30 57,29 56,28Z"
          fill="url(#volcan-rock-grad)"/>
    <!-- Petite pierre -->
    <path d="M18,62 C16,59 16,56 18,55 C20,54 23,56 23,59 C23,61 21,63 19,63Z"
          fill="#37474f"/>
    <!-- Caillou -->
    <ellipse cx="66" cy="48" rx="4" ry="3" fill="#37474f"
             transform="rotate(-15, 66, 48)"/>
  </g>

  <!-- Petites étincelles/braises -->
  <g fill="#ffcc02" opacity="0.9">
    <polygon points="48,18 50,14 52,18 48,16" />
    <polygon points="62,12 64,8 66,12 62,10" />
    <polygon points="72,22 74,18 76,22 72,20" />
    <circle cx="44" cy="10" r="1.5"/>
    <circle cx="58" cy="6" r="1.2"/>
  </g>
</svg>
